assets/images/icons/whatsapp-icon.svg

<svg width="33" height="32" viewBox="0 0 33 32" fill="none" xmlns="http://www.w3.org/2000/svg">
<g clip-path="url(#clip0_379_9921)">
<path opacity="0.1" d="M0.723155 23.1618C0.441095 20.752 0.401914 18.3874 0.748062 16.248C1.1737 13.6174 2.28493 10.6909 3.49894 8.07362C5.87163 2.95839 10.1191 1.16885 15.2912 0.362065C22.5007 -0.762522 32.4372 0.362091 32.5 9.08714C32.1383 12.2073 29.7517 20.8815 21.6951 21.5434C19.0313 21.7622 18.0348 24.4378 16.8612 27.5006C13.7729 35.5602 1.75575 31.9835 0.723155 23.1618Z" fill="white"/>
<g clip-path="url(#clip1_379_9921)">
<path d="M16.003 4H15.997C9.3805 4 4 9.382 4 16C4 18.625 4.846 21.058 6.2845 23.0335L4.789 27.4915L9.4015 26.017C11.299 27.274 13.5625 28 16.003 28C22.6195 28 28 22.6165 28 16C28 9.3835 22.6195 4 16.003 4ZM22.9855 20.9455C22.696 21.763 21.547 22.441 20.6305 22.639C20.0035 22.7725 19.1845 22.879 16.4275 21.736C12.901 20.275 10.63 16.6915 10.453 16.459C10.2835 16.2265 9.028 14.5615 9.028 12.8395C9.028 11.1175 9.9025 10.279 10.255 9.919C10.5445 9.6235 11.023 9.4885 11.482 9.4885C11.6305 9.4885 11.764 9.496 11.884 9.502C12.2365 9.517 12.4135 9.538 12.646 10.0945C12.9355 10.792 13.6405 12.514 13.7245 12.691C13.81 12.868 13.8955 13.108 13.7755 13.3405C13.663 13.5805 13.564 13.687 13.387 13.891C13.21 14.095 13.042 14.251 12.865 14.47C12.703 14.6605 12.52 14.8645 12.724 15.217C12.928 15.562 13.633 16.7125 14.671 17.6365C16.0105 18.829 17.0965 19.21 17.485 19.372C17.7745 19.492 18.1195 19.4635 18.331 19.2385C18.5995 18.949 18.931 18.469 19.2685 17.9965C19.5085 17.6575 19.8115 17.6155 20.1295 17.7355C20.4535 17.848 22.168 18.6955 22.5205 18.871C22.873 19.048 23.1055 19.132 23.191 19.2805C23.275 19.429 23.275 20.1265 22.9855 20.9455Z" fill="#7FB51F"/>
</g>
</g>
<defs>
<clipPath id="clip0_379_9921">
<rect width="32" height="32" fill="white" transform="translate(0.5)"/>
</clipPath>
<clipPath id="clip1_379_9921">
<rect width="24" height="24" fill="white" transform="translate(4 4)"/>
</clipPath>
</defs>
</svg>

<svg xmlns="http://www.w3.org/2000/svg" width="33" height="32" fill="none"><g clip-path="url(#a)"><path fill="#fff" d="M.723 23.162c-.282-2.41-.321-4.775.025-6.914.426-2.63 1.537-5.557 2.75-8.174C5.873 2.958 10.12 1.169 15.292.362c7.21-1.125 17.146 0 17.209 8.725-.362 3.12-2.748 11.795-10.805 12.456-2.664.22-3.66 2.895-4.834 5.958-3.088 8.06-15.105 4.482-16.138-4.34" opacity=".1"/><g clip-path="url(#b)"><path fill="#7FB51F" d="M16.003 4h-.006C9.381 4 4 9.382 4 16c0 2.625.846 5.058 2.285 7.034l-1.496 4.458 4.613-1.475A11.9 11.9 0 0 0 16.003 28C22.619 28 28 22.616 28 16S22.62 4 16.003 4m6.982 16.946c-.289.817-1.438 1.495-2.354 1.693-.628.134-1.447.24-4.204-.903-3.526-1.461-5.797-5.044-5.974-5.277-.17-.232-1.425-1.897-1.425-3.62 0-1.722.874-2.56 1.227-2.92.29-.296.768-.43 1.227-.43.149 0 .282.007.402.013.352.015.53.036.762.592.29.698.994 2.42 1.079 2.597s.17.417.05.65c-.112.24-.211.346-.388.55s-.345.36-.522.579c-.162.19-.345.394-.141.747.204.345.909 1.495 1.947 2.42 1.34 1.192 2.425 1.573 2.814 1.735.29.12.634.091.846-.134.268-.289.6-.769.938-1.241.24-.34.543-.381.86-.262.324.113 2.039.96 2.391 1.136.353.177.585.261.671.41.084.148.084.846-.206 1.665"/></g></g><defs><clipPath id="a"><path fill="#fff" d="M.5 0h32v32H.5z"/></clipPath><clipPath id="b"><path fill="#fff" d="M4 4h24v24H4z"/></clipPath></defs></svg>
